src/public/img/logo-type.svg

<svg fill="none" height="104" viewBox="0 0 512 104" width="512" xmlns="http://www.w3.org/2000/svg"><g fill="#1e1e1e"><path d="m214.819 86.6731c-3.253 0-6.175-.6307-8.764-1.8915-2.523-1.2607-4.548-2.9532-6.075-5.0768-1.461-2.1899-2.191-4.712-2.191-7.5658 0-3.7159 1.195-6.7355 3.585-9.0587 2.39-2.3225 5.809-3.9149 10.258-4.7777l11.652-2.3895c2.324-.4643 3.918-1.1944 4.78-2.1899.863-.9955 1.295-2.4552 1.295-4.3798l1.196 11.6465-16.732 3.5839c-2.257.4643-4.017 1.294-5.278 2.4884-1.196 1.1951-1.793 2.8538-1.793 4.9774 0 2.1905.83 3.9487 2.49 5.2763 1.726 1.3271 4.05 1.991 6.971 1.991 2.39 0 4.581-.5312 6.573-1.593 2.058-1.0618 3.652-2.5221 4.781-4.3798 1.194-1.9246 1.792-4.1145 1.792-6.5703v-17.4204c0-2.3895-.863-4.2472-2.589-5.5749-1.66-1.3934-3.95-2.0904-6.872-2.0904-3.718 0-6.573.9291-8.565 2.7874s-3.153 4.4793-3.485 7.8643l-8.765-1.1945c.332-3.5176 1.395-6.5371 3.187-9.0586 1.793-2.5885 4.183-4.5794 7.171-5.9729 2.988-1.394 6.54-2.0904 10.656-2.0904 5.843 0 10.325 1.4929 13.445 4.4793s4.681 6.8356 4.681 11.5471v35.1398h-8.665v-6.4702c-.863 2.1899-2.622 4.0813-5.278 5.6743-2.59 1.5261-5.743 2.2894-9.461 2.2894z"/><path d="m127.174 85.1796v-49.6733h8.664v5.5749c.664-1.9246 2.125-3.5839 4.382-4.9774 2.257-1.394 4.88-2.0904 7.868-2.0904 2.921 0 5.61.6301 8.067 1.8909 2.456 1.2613 4.05 3.1528 4.78 5.6743.863-2.3225 2.457-4.1477 4.78-5.4748 2.391-1.394 5.047-2.0904 7.968-2.0904 5.046 0 8.897 1.4598 11.552 4.3798 2.656 2.9201 3.984 7.1673 3.984 12.7421v34.0443h-8.864v-32.8498c0-3.3186-.73-5.807-2.19-7.4663-1.395-1.7251-3.453-2.5879-6.175-2.5879-2.988 0-5.312 1.0618-6.972 3.1854-1.593 2.0573-2.39 5.0768-2.39 9.0587v30.6599h-8.864v-32.8498c0-3.3186-.73-5.807-2.19-7.4663-1.395-1.7251-3.453-2.5879-6.175-2.5879-2.988 0-5.312 1.0618-6.972 3.1854-1.593 2.0573-2.39 5.0768-2.39 9.0587v30.6599z"/><path d="m93.2821 103.098c-6.1746 0-11.1878-1.427-15.0387-4.2803-3.851-2.8538-6.307-6.8356-7.3693-11.9456l8.6643-1.8915c.7303 3.2517 2.2907 5.7739 4.6805 7.5658 2.3905 1.8583 5.4114 2.7874 9.0632 2.7874 4.3815 0 7.6679-1.1287 9.8589-3.3849 2.258-2.1899 3.387-5.4748 3.387-9.8552v-7.8636c-.996 2.4552-2.856 4.4461-5.578 5.9722-2.6554 1.5266-5.6431 2.29-8.963 2.29-4.3821 0-8.2324-.9955-11.5523-2.9864-3.3198-2.0573-5.9094-4.9111-7.7681-8.5613-1.8593-3.6497-2.7887-7.8642-2.7887-12.642 0-4.8447.9294-9.0919 2.7887-12.7421 1.8587-3.6503 4.4152-6.4702 7.6683-8.4612 3.3198-2.0572 7.2038-3.0859 11.6521-3.0859 3.3199 0 6.3407.7628 9.063 2.2894 2.788 1.4598 4.681 3.2849 5.677 5.4748v-6.2713h8.664v46.5874c0 4.3804-.863 8.1296-2.589 11.2492-1.727 3.1854-4.25 5.6074-7.569 7.2671-3.253 1.658-7.2373 2.488-11.9509 2.488zm-.1997-28.47c4.2498 0 7.6356-1.4935 10.1586-4.4799 2.59-2.9864 3.884-6.9345 3.884-11.8455 0-4.9774-1.294-8.9592-3.884-11.9456s-5.9756-4.4799-10.1586-4.4799c-4.2492 0-7.6682 1.4935-10.2578 4.4799-2.5228 2.9864-3.7842 6.9682-3.7842 11.9456 0 4.911 1.2945 8.8591 3.884 11.8455 2.5896 2.9864 5.9756 4.4799 10.158 4.4799z"/><path d="m51.9901 85.1215v-49.6152h8.8641v49.6733zm-.0992-55.986v-14.1355h9.0626v14.1355z"/><path d="m1.0835 85.1796v-70.1796h9.3615v70.1796zm1.89238-29.6645v-8.4618h38.14342v8.4618zm0-31.9544v-8.5607h41.82832v8.5607z"/><path d="m338.106 40.603c1.048-1.8702 2.71-3.3745 4.985-4.5126 2.729-1.394 5.761-2.0904 9.096-2.0904 5.76 0 10.157 1.4597 13.189 4.3798 3.031 2.9201 4.547 7.1673 4.547 12.7421v34.0443h-8.841v-32.8499c0-3.3186-1.615-5.8069-3.283-7.4662-1.591-1.7251-4.796-2.5879-7.903-2.5879-3.411 0-6.372 1.1546-8.267 3.2781-1.376 1.5558-2.741 3.9191-3.324 7.2571v32.3688h-8.864v-49.6733h8.665z"/><g clip-rule="evenodd" fill-rule="evenodd"><path d="m493.657 41.4662c2.223-4.5736 9.031-7.9115 16.037-7.9115v9.745c-5.823 0-13.609 2.0682-16.037 11.8902v30.1042h-8.958v-49.8168h8.958z"/><path d="m414.404 15.7h8.453v69.4736h-8.453v-6.8203c-3.021 4.4959-7.777 8.7003-14.976 8.7003-11.758 0-22.406-7.3431-22.406-26.1718 0-18.8286 10.648-26.6425 22.406-26.6425 6.743 0 11.845 3.9347 14.976 7.5987zm0 38.8509c-1.638-5.8291-6.002-12.4977-14.976-12.4977-8.291 0-13.758 8.8869-13.758 18.8286 0 9.9418 5.188 18.7345 13.758 18.7345 8.974 0 13.338-5.9786 14.976-12.3334z"/><path d="m471.275 62.4584h4.676c0-17.7721-7.408-28.413-22.731-28.413-13.609 0-22.886 11.2172-22.887 25.59 0 15.0992 7.727 27.8698 22.887 27.8698 15.993 0 21.515-10.4009 22.731-16.1031l-8.709-2.8812c-2.175 6.0113-4.828 11.2377-14.022 11.2377-8.381 0-12.874-7.7522-13.603-17.3002h26.658zm-4.724-6c-.354-9.0318-4.668-14.2893-13.331-14.2893-8.246 0-12.483 7.3736-13.477 14.2893z"/></g><path d="m307.907 85.1215v-49.6152h8.864v49.6733zm-.099-55.986v-14.1355h9.062v14.1355z"/><path d="m257 85.1796v-70.1796h9.362v70.1796zm1.892-29.6645v-8.4618h38.144v8.4618zm0-31.9544v-8.5607h41.829v8.5607z"/></g></svg>

<svg width="512" height="104" viewBox="0 0 512 104" fill="none" xmlns="http://www.w3.org/2000/svg">
<path d="M214.819 86.6731C211.566 86.6731 208.644 86.0424 206.055 84.7816C203.532 83.5209 201.507 81.8284 199.98 79.7048C198.519 77.5149 197.789 74.9928 197.789 72.139C197.789 68.4231 198.984 65.4035 201.374 63.0803C203.764 60.7578 207.183 59.1654 211.632 58.3026L223.284 55.9131C225.608 55.4488 227.202 54.7187 228.064 53.7232C228.927 52.7277 229.359 51.268 229.359 49.3434L230.555 60.9899L213.823 64.5738C211.566 65.0381 209.806 65.8678 208.545 67.0622C207.349 68.2573 206.752 69.916 206.752 72.0396C206.752 74.2301 207.582 75.9883 209.242 77.3159C210.968 78.643 213.292 79.3069 216.213 79.3069C218.603 79.3069 220.794 78.7757 222.786 77.7139C224.844 76.6521 226.438 75.1918 227.567 73.3341C228.761 71.4095 229.359 69.2196 229.359 66.7638V49.3434C229.359 46.9539 228.496 45.0962 226.77 43.7685C225.11 42.3751 222.82 41.6781 219.898 41.6781C216.18 41.6781 213.325 42.6072 211.333 44.4655C209.341 46.3238 208.18 48.9448 207.848 52.3298L199.083 51.1353C199.415 47.6177 200.478 44.5982 202.27 42.0767C204.063 39.4882 206.453 37.4973 209.441 36.1038C212.429 34.7098 215.981 34.0134 220.097 34.0134C225.94 34.0134 230.422 35.5063 233.542 38.4927C236.662 41.4791 238.223 45.3283 238.223 50.0398V85.1796H229.558V78.7094C228.695 80.8993 226.936 82.7907 224.28 84.3837C221.69 85.9098 218.537 86.6731 214.819 86.6731Z" fill="#1E1E1E"/>
<path d="M127.174 85.1796V35.5063H135.838V41.0812C136.502 39.1566 137.963 37.4973 140.22 36.1038C142.477 34.7098 145.1 34.0134 148.088 34.0134C151.009 34.0134 153.698 34.6435 156.155 35.9043C158.611 37.1656 160.205 39.0571 160.935 41.5786C161.798 39.2561 163.392 37.4309 165.715 36.1038C168.106 34.7098 170.762 34.0134 173.683 34.0134C178.729 34.0134 182.58 35.4732 185.235 38.3932C187.891 41.3133 189.219 45.5605 189.219 51.1353V85.1796H180.355V52.3298C180.355 49.0112 179.625 46.5228 178.165 44.8635C176.77 43.1384 174.712 42.2756 171.99 42.2756C169.002 42.2756 166.678 43.3374 165.018 45.461C163.425 47.5183 162.628 50.5378 162.628 54.5197V85.1796H153.764V52.3298C153.764 49.0112 153.034 46.5228 151.574 44.8635C150.179 43.1384 148.121 42.2756 145.399 42.2756C142.411 42.2756 140.087 43.3374 138.427 45.461C136.834 47.5183 136.037 50.5378 136.037 54.5197V85.1796H127.174Z" fill="#1E1E1E"/>
<path d="M93.2821 103.098C87.1075 103.098 82.0943 101.671 78.2434 98.8177C74.3924 95.9639 71.9364 91.9821 70.8741 86.8721L79.5384 84.9806C80.2687 88.2323 81.8291 90.7545 84.2189 92.5464C86.6094 94.4047 89.6303 95.3338 93.2821 95.3338C97.6636 95.3338 100.95 94.2051 103.141 91.9489C105.399 89.759 106.528 86.4741 106.528 82.0937V74.2301C105.532 76.6853 103.672 78.6762 100.95 80.2023C98.2946 81.7289 95.3069 82.4923 91.987 82.4923C87.6049 82.4923 83.7546 81.4968 80.4347 79.5059C77.1149 77.4486 74.5253 74.5948 72.6666 70.9446C70.8073 67.2949 69.8779 63.0804 69.8779 58.3026C69.8779 53.4579 70.8073 49.2107 72.6666 45.5605C74.5253 41.9102 77.0818 39.0903 80.3349 37.0993C83.6547 35.0421 87.5387 34.0134 91.987 34.0134C95.3069 34.0134 98.3277 34.7762 101.05 36.3028C103.838 37.7626 105.731 39.5877 106.727 41.7776V35.5063H115.391V82.0937C115.391 86.4741 114.528 90.2233 112.802 93.3429C111.075 96.5283 108.552 98.9503 105.233 100.61C101.98 102.268 97.9957 103.098 93.2821 103.098ZM93.0824 74.628C97.3322 74.628 100.718 73.1345 103.241 70.1481C105.831 67.1617 107.125 63.2136 107.125 58.3026C107.125 53.3252 105.831 49.3434 103.241 46.357C100.651 43.3706 97.2654 41.8771 93.0824 41.8771C88.8332 41.8771 85.4142 43.3706 82.8246 46.357C80.3018 49.3434 79.0404 53.3252 79.0404 58.3026C79.0404 63.2136 80.3349 67.1617 82.9244 70.1481C85.514 73.1345 88.9 74.628 93.0824 74.628Z" fill="#1E1E1E"/>
<path d="M51.9901 85.1215V35.5063H60.8542V85.1796L51.9901 85.1215ZM51.8909 29.1355V15H60.9535V29.1355H51.8909Z" fill="#1E1E1E"/>
<path d="M1.0835 85.1796V15H10.445V85.1796H1.0835ZM2.97588 55.5151V47.0533H41.1193V55.5151H2.97588ZM2.97588 23.5607V15H44.8042V23.5607H2.97588Z" fill="#1E1E1E"/>
<path d="M338.106 40.603C339.154 38.7328 340.816 37.2285 343.091 36.0904C345.82 34.6964 348.852 34 352.187 34C357.947 34 362.344 35.4597 365.376 38.3798C368.407 41.2999 369.923 45.5471 369.923 51.1219V85.1662H361.082V52.3163C361.082 48.9977 359.467 46.5094 357.799 44.8501C356.208 43.125 353.003 42.2622 349.896 42.2622C346.485 42.2622 343.524 43.4168 341.629 45.5403C340.253 47.0961 338.888 49.4594 338.305 52.7974V85.1662H329.441V35.4929H338.106V40.603Z" fill="#1E1E1E"/>
<path fill-rule="evenodd" clip-rule="evenodd" d="M493.657 41.4662C495.88 36.8926 502.688 33.5547 509.694 33.5547V43.2997C503.871 43.2997 496.085 45.3679 493.657 55.1899V85.2941H484.699V35.4773H493.657V41.4662Z" fill="#1E1E1E"/>
<path fill-rule="evenodd" clip-rule="evenodd" d="M414.404 15.7H422.857V85.1736H414.404V78.3533C411.383 82.8492 406.627 87.0536 399.428 87.0536C387.67 87.0536 377.022 79.7105 377.022 60.8818C377.022 42.0532 387.67 34.2393 399.428 34.2393C406.171 34.2393 411.273 38.174 414.404 41.838V15.7ZM414.404 54.5509C412.766 48.7218 408.402 42.0532 399.428 42.0532C391.137 42.0532 385.67 50.9401 385.67 60.8818C385.67 70.8236 390.858 79.6163 399.428 79.6163C408.402 79.6163 412.766 73.6377 414.404 67.2829V54.5509Z" fill="#1E1E1E"/>
<path fill-rule="evenodd" clip-rule="evenodd" d="M471.275 62.4584H475.951C475.951 44.6863 468.543 34.0454 453.22 34.0454C439.611 34.0454 430.334 45.2626 430.333 59.6354C430.333 74.7346 438.06 87.5052 453.22 87.5052C469.213 87.5052 474.735 77.1043 475.951 71.4021L467.242 68.5209C465.067 74.5322 462.414 79.7586 453.22 79.7586C444.839 79.7586 440.346 72.0064 439.617 62.4584H466.275H471.275ZM466.551 56.4584C466.197 47.4266 461.883 42.1691 453.22 42.1691C444.974 42.1691 440.737 49.5427 439.743 56.4584H466.551Z" fill="#1E1E1E"/>
<path d="M307.907 85.1215V35.5063H316.771V85.1796L307.907 85.1215ZM307.808 29.1355V15H316.87V29.1355H307.808Z" fill="#1E1E1E"/>
<path d="M257 85.1796V15H266.362V85.1796H257ZM258.892 55.5151V47.0533H297.036V55.5151H258.892ZM258.892 23.5607V15H300.721V23.5607H258.892Z" fill="#1E1E1E"/>
</svg>
